img/image/features-icon-6.svg

<svg width="40" height="40" viewBox="0 0 40 40" fill="none" xmlns="http://www.w3.org/2000/svg">
<path d="M14.7164 13.06C15.5135 12.2104 15.5135 10.8296 14.7164 9.97997C13.9194 9.13029 12.6243 9.13029 11.8273 9.97997C11.8143 9.99382 11.8056 10.0077 11.7926 10.0215L4.47217 2.21745L5.26052 1.37701C5.31684 1.31698 5.40347 1.30313 5.47278 1.34469L14.881 7.01073L18.4936 10.862C18.7102 11.0929 18.8358 11.4069 18.8401 11.7347L18.8661 13.2909L16.8606 15.429L14.6731 13.097C14.6731 13.097 14.6991 13.0739 14.7121 13.06H14.7164Z" fill="#98989C"/>
<path d="M11.7177 9.93466L10.1587 11.5967L13.3319 14.9795L14.8909 13.3175L11.7177 9.93466Z" fill="#898989"/>
<path d="M13.2772 8.27645L11.7181 9.93848L14.8913 13.3213L16.4503 11.6593L13.2772 8.27645Z" fill="#B1B1B2"/>
<path d="M14.7295 13.0461C13.9325 13.8958 12.6373 13.8958 11.8403 13.0461C11.0433 12.1964 11.0433 10.8157 11.8403 9.96602C11.8533 9.95216 11.8663 9.94293 11.8793 9.92907L4.55886 2.125L3.7705 2.96544C3.71419 3.02547 3.7012 3.11783 3.74018 3.19171L9.05507 13.2216L12.6676 17.0728C12.8842 17.3037 13.1788 17.4376 13.4863 17.4422L14.9461 17.4699L16.9516 15.3319L14.7641 12.9999C14.7641 12.9999 14.7425 13.0276 14.7295 13.0415V13.0461Z" fill="#D8DADC"/>
<path d="M11.7581 10.0679L4.51997 2.35157C4.47232 2.30078 4.39869 2.30078 4.35104 2.35157L4.18644 2.52705C4.14746 2.56861 4.13879 2.63326 4.16911 2.68406L9.77422 12.2614C9.82187 12.3399 9.87818 12.4138 9.93882 12.483L13.716 16.5097C13.768 16.5652 13.8243 16.6159 13.8849 16.6621L14.9462 17.4749L15.7085 18.2737C16.2153 18.814 16.4362 19.8761 16.7178 21.2199C17.2116 23.5796 17.8917 26.8167 20.7115 30.4047C23.5877 34.062 26.1261 35.355 28.3698 36.4956C29.8296 37.239 31.0901 37.8809 32.2423 39.1046L33.9793 37.2529C32.5282 35.7059 31.0208 34.9394 29.4267 34.1312C27.3129 33.0553 25.1298 31.947 22.5958 28.7238C20.1614 25.6253 19.581 22.8638 19.1175 20.6519C18.7623 18.9618 18.4591 17.5026 17.4455 16.422L16.8218 15.757C16.7481 15.6785 16.7481 15.5539 16.8218 15.4753L16.9474 15.3414L14.7599 13.0094C14.7599 13.0094 14.7383 13.0372 14.7253 13.051C13.9282 13.9007 12.6331 13.9007 11.8361 13.051C11.3683 12.5523 11.195 11.8596 11.26 11.227C11.3076 10.7837 11.5372 10.3034 11.7538 10.0772L11.7581 10.0679Z" fill="#6D6D6E"/>
<path d="M30.9991 19.4375C27.6334 16.4313 24.5969 15.7063 22.3835 15.1799C21.123 14.8797 20.1267 14.6442 19.6199 14.104L18.8705 13.2912L18.1082 12.1599C18.0649 12.0952 18.0172 12.0352 17.9652 11.9798L14.1881 7.95306C14.1274 7.88841 14.0581 7.82838 13.9801 7.77758L4.99638 1.80215C4.94873 1.76983 4.88809 1.77907 4.8491 1.82063L4.5892 2.0977C4.54155 2.14849 4.54155 2.22699 4.5892 2.27779C5.39921 3.14594 11.8187 10.008 11.8317 9.99874C12.6287 9.14906 13.9238 9.13521 14.7208 9.98489C15.5179 10.8346 15.5179 12.2153 14.7208 13.065C14.7079 13.0788 14.6949 13.088 14.6819 13.1019L16.8693 15.4339L16.9993 15.2954C17.0686 15.2215 17.1855 15.2215 17.2548 15.2954L17.8829 15.9649C18.8965 17.0455 20.2653 17.3687 21.8507 17.7474C23.9299 18.2415 26.5158 18.8557 29.4223 21.4555C32.4458 24.1523 33.4854 26.4843 34.4947 28.7378C35.257 30.4371 35.9761 32.0441 37.4228 33.5911L39.1598 31.7393C38.0076 30.511 37.4055 29.1672 36.7125 27.611C35.6425 25.2236 34.4297 22.513 30.9991 19.4468V19.4375Z" fill="#6D6D6E"/>
<path d="M39.4847 33.6092C40.0608 32.9951 40.2124 31.8406 39.6363 31.2264C38.5145 30.0304 37.921 28.7051 37.2366 27.1674C36.1581 24.7523 34.9322 22.0186 31.4583 18.9154C28.0449 15.8677 24.8266 15.2997 22.5871 14.764C21.3656 14.4731 20.3996 14.2422 19.9448 13.7573L17.7097 16.1401C18.771 17.2715 20.1744 17.6086 21.7944 17.9918C23.8476 18.4813 26.4033 19.0863 29.2621 21.6445C32.2423 24.309 33.2732 26.6086 34.2695 28.839C35.0058 30.4876 35.7682 32.1869 37.2496 33.7662C37.8257 34.3804 38.9086 34.2188 39.4847 33.6046V33.6092Z" fill="#739CED"/>
<path d="M38.1505 32.8055C37.0287 31.6095 36.4352 30.2842 35.7508 28.7465C34.6723 26.3314 33.4464 23.5977 29.9725 20.4945C26.5591 17.4468 23.3408 16.8788 21.1013 16.3431C19.8798 16.0522 18.9138 15.8213 18.459 15.3364L17.7053 16.1399C18.7666 17.2713 20.17 17.6084 21.79 17.9917C23.8432 18.4811 26.3989 19.0861 29.2577 21.6443C32.2379 24.3088 33.2688 26.6085 34.2651 28.8389C35.0015 30.4874 35.7638 32.1868 37.2452 33.766C37.5788 34.1216 38.0769 34.2186 38.5534 34.117C38.9042 34.0431 38.7266 33.4151 38.1505 32.8009V32.8055Z" fill="url(#paint0_linear_226_1971)"/>
<path d="M34.0052 39.451C33.4291 40.0651 32.3461 40.2268 31.77 39.6126C30.6482 38.4166 29.405 37.7839 27.9626 37.0543C25.6971 35.9045 23.1328 34.5977 20.222 30.8942C17.3631 27.2554 16.8303 23.8243 16.3278 21.4369C16.0549 20.1347 15.8384 19.105 15.3835 18.6201L17.6187 16.2373C18.6799 17.3687 18.9961 18.8648 19.3556 20.5919C19.8148 22.7807 20.3822 25.5052 22.7819 28.553C25.2813 31.73 27.4384 32.829 29.5306 33.8911C31.077 34.6762 32.671 35.4889 34.1524 37.0682C34.7285 37.6824 34.5769 38.8368 34.0008 39.451H34.0052Z" fill="url(#paint1_linear_226_1971)"/>
<path d="M16.6181 13.374C17.0815 13.8681 17.0815 14.667 16.6181 15.1611C16.1546 15.6552 15.4052 15.6552 14.9417 15.1611C14.4782 14.667 14.4782 13.8681 14.9417 13.374C15.4052 12.8799 16.1546 12.8799 16.6181 13.374Z" fill="#898989"/>
<path d="M16.3625 13.6465C16.6874 13.9928 16.6874 14.5469 16.3625 14.8933C16.0377 15.2396 15.5179 15.2396 15.193 14.8933C14.8681 14.5469 14.8681 13.9928 15.193 13.6465C15.5179 13.3001 16.0377 13.3001 16.3625 13.6465Z" fill="#504F53"/>
<path d="M17.5493 15.6046C17.5493 15.6046 17.6403 15.1243 18.2467 14.4778C18.7968 13.8914 19.2863 13.7528 19.2863 13.7528L18.8618 13.3003L16.9949 15.2906C16.9949 15.2906 17.1292 15.1613 17.2504 15.2906C17.3717 15.4199 17.545 15.6046 17.545 15.6046H17.5493Z" fill="#39373A"/>
<path d="M32.6104 38.7121C31.4885 37.5161 30.2453 36.8835 28.8029 36.1539C26.5375 35.004 23.9731 33.6972 21.0623 29.9937C18.2034 26.3549 17.6706 22.9239 17.1682 20.5365C16.8953 19.2343 16.6787 18.2045 16.2239 17.7196L17.6143 16.2373C18.6756 17.3687 18.9918 18.8648 19.3513 20.5919C19.8105 22.7807 20.3779 25.5052 22.7776 28.553C25.277 31.73 27.4341 32.829 29.5263 33.8911C31.0727 34.6762 32.6667 35.4889 34.1481 37.0682C34.4816 37.4238 34.5726 37.9548 34.4773 38.4628C34.408 38.8368 33.559 39.728 32.606 38.7121H32.6104Z" fill="#739CED"/>
<path d="M32.4112 10.0076L12.3168 31.4296C13.0792 34.0109 12.6374 36.1212 9.9951 37.562C7.33548 39.012 5.02674 38.6518 4.17341 38.4394C3.9525 38.384 3.77057 38.227 3.66661 38.0145L3.45003 37.5574L6.43451 35.9319C8.10219 35.0222 8.76492 32.8426 7.91159 31.0648L7.63437 30.4875C6.91532 28.9914 5.2 28.4003 3.79656 29.1622L0.326937 31.0509L0.0843677 30.5429C-0.019591 30.3259 -0.0282556 30.0719 0.0627083 29.8457C0.409237 28.9914 1.50081 26.8395 4.16042 25.3941C6.28291 24.2397 7.89427 24.5537 9.2284 25.8374C9.53595 26.133 10.0038 26.1283 10.2983 25.8189L29.3011 5.56068C29.4874 5.36211 29.561 5.0758 29.509 4.79874C29.1885 3.14095 29.6476 1.7787 31.4193 0.813577C33.9619 -0.571762 36.0757 0.231737 36.0757 0.231737L36.3573 0.818199L34.1049 2.04653C32.8444 2.73459 32.3462 4.3739 32.9916 5.71768L33.0133 5.76848C33.6544 7.11226 35.1964 7.6433 36.4569 6.95525L38.7094 5.72691L39.0126 6.35493C39.0126 6.35493 38.3758 8.59918 35.8245 9.99376C34.4427 10.7465 33.3468 10.6726 32.4242 10.0122L32.4112 10.0076Z" fill="#D8DADC"/>
<path d="M32.0041 10.4462L12.6375 31.0924C12.4426 31.3002 12.3689 31.6003 12.4382 31.8866C13.0187 34.2648 12.4772 36.2135 9.99087 37.5665C7.33126 39.0165 5.02251 38.6563 4.16918 38.4439C3.94827 38.3885 3.76634 38.2315 3.66238 38.0191L3.4458 37.5619L6.91542 35.6732C8.58309 34.7635 8.76502 32.8471 7.91169 31.0647L11.3293 29.2453L30.9602 8.31741C30.761 7.98493 30.566 7.62012 30.3798 7.23223L33.0091 5.76839C33.6501 7.11217 34.8283 7.84178 36.0888 7.15373L38.7051 5.73145L39.0084 6.35947C39.0084 6.35947 38.3716 8.60371 35.8203 9.99828C34.6637 10.6263 33.7065 10.6771 32.8878 10.2892C32.5889 10.1507 32.2424 10.2061 32.0128 10.4508L32.0041 10.4462Z" fill="#B1B1B2"/>
<path d="M35.6079 9.74901C34.3691 10.4232 33.4118 10.4925 32.6018 10.0723C32.147 9.83675 31.5969 9.9291 31.2417 10.3124L12.4381 30.3582C12.2172 30.5937 12.1392 30.9401 12.2302 31.2541C12.9579 33.8123 12.3082 35.7518 9.67456 37.1141C6.8157 38.5918 3.65795 38.0053 3.65795 38.0053L3.4457 37.562L6.43018 35.9365C8.09785 35.0268 8.76059 32.8472 7.90726 31.0694L7.87694 31.0047C7.02361 29.2269 4.97909 28.5203 3.31142 29.4301L0.326939 31.0555L0.127686 30.6353C0.127686 30.6353 1.50947 27.292 4.34668 25.9067C6.66842 24.7753 8.25813 24.96 9.57494 26.2992C9.90414 26.6363 10.4239 26.6271 10.7488 26.2853L29.3314 6.47499C29.626 6.16098 29.7429 5.70382 29.6433 5.26975C29.2448 3.52422 29.7992 2.21739 31.7355 1.21532C34.0312 0.0239334 36.2533 0.619625 36.2533 0.619625L36.3486 0.822809L34.0962 2.05114C32.8357 2.7392 32.3376 4.37851 32.983 5.72229L33.0046 5.77309C33.6457 7.11687 35.1878 7.64791 36.4483 6.95986L38.7007 5.73153L38.783 5.90238C38.783 5.90238 38.1593 8.35905 35.6079 9.75362V9.74901Z" fill="#6D6D6E"/>
<path d="M11.3463 27.0363L29.1941 8.02934C29.5802 7.61813 30.2111 7.61848 30.5969 8.03012L30.6458 8.08239C31.0316 8.49403 31.0312 9.16668 30.6451 9.57789L12.7974 28.5849C12.4112 28.9961 11.7803 28.9957 11.3946 28.5841L11.3456 28.5318C10.9598 28.1202 10.9602 27.4475 11.3463 27.0363Z" fill="#B1B1B2"/>
<defs>
<linearGradient id="paint0_linear_226_1971" x1="2.85441" y1="3.03647" x2="42.4392" y2="5.01608" gradientUnits="userSpaceOnUse">
<stop stop-color="#040E1D"/>
<stop offset="0.203125" stop-color="#0E305F"/>
<stop offset="0.395833" stop-color="#133F7B"/>
<stop offset="0.578125" stop-color="#19519D"/>
<stop offset="0.786458" stop-color="#1161CD"/>
<stop offset="1" stop-color="#1161CD"/>
</linearGradient>
<linearGradient id="paint1_linear_226_1971" x1="1.87118" y1="0.705679" x2="37.9314" y2="2.00508" gradientUnits="userSpaceOnUse">
<stop stop-color="#040E1D"/>
<stop offset="0.203125" stop-color="#0E305F"/>
<stop offset="0.395833" stop-color="#133F7B"/>
<stop offset="0.578125" stop-color="#19519D"/>
<stop offset="0.786458" stop-color="#1161CD"/>
<stop offset="1" stop-color="#1161CD"/>
</linearGradient>
</defs>
</svg>

<svg width="40" height="40" fill="none" xmlns="http://www.w3.org/2000/svg"><path d="M14.716 13.06c.798-.85.798-2.23 0-3.08a1.956 1.956 0 0 0-2.889 0c-.013.014-.021.028-.034.041l-7.32-7.804.788-.84a.17.17 0 0 1 .212-.032L14.88 7.01l3.613 3.851c.216.23.342.545.346.873l.026 1.556-2.005 2.138-2.188-2.332.04-.037h.003Z" fill="#98989C"/><path d="m11.718 9.935-1.56 1.662 3.174 3.383 1.559-1.662-3.173-3.383Z" fill="#898989"/><path d="m13.277 8.276-1.559 1.662 3.173 3.383 1.56-1.662-3.174-3.383Z" fill="#B1B1B2"/><path d="M14.73 13.046c-.798.85-2.093.85-2.89 0-.797-.85-.797-2.23 0-3.08.013-.014.026-.023.04-.037L4.558 2.125l-.788.84a.198.198 0 0 0-.03.227l5.314 10.03 3.613 3.85c.216.232.51.366.818.37l1.46.028 2.006-2.138L14.764 13s-.021.028-.034.041v.005Z" fill="#D8DADC"/><path d="M11.758 10.068 4.52 2.352a.113.113 0 0 0-.169 0l-.165.175a.132.132 0 0 0-.017.157l5.605 9.577c.048.079.104.153.165.222l3.777 4.027c.052.055.108.106.169.152l1.061.813.763.799c.506.54.727 1.602 1.009 2.946.494 2.36 1.174 5.597 3.994 9.185 2.876 3.657 5.414 4.95 7.658 6.09 1.46.744 2.72 1.386 3.872 2.61l1.737-1.852c-1.45-1.547-2.958-2.314-4.552-3.122-2.114-1.076-4.297-2.184-6.831-5.407-2.435-3.099-3.015-5.86-3.479-8.072-.355-1.69-.658-3.15-1.672-4.23l-.623-.665a.207.207 0 0 1 0-.282l.125-.134-2.187-2.332s-.022.028-.035.042c-.797.85-2.092.85-2.889 0-.468-.499-.641-1.191-.576-1.824.048-.443.277-.924.494-1.15l.004-.01Z" fill="#6D6D6E"/><path d="M31 19.438c-3.367-3.007-6.403-3.732-8.616-4.258-1.261-.3-2.257-.536-2.764-1.076l-.75-.813-.762-1.131a1.402 1.402 0 0 0-.143-.18l-3.777-4.027a1.14 1.14 0 0 0-.208-.175L4.996 1.802a.113.113 0 0 0-.147.019l-.26.277a.131.131 0 0 0 0 .18c.81.868 7.23 7.73 7.243 7.72.797-.849 2.092-.863 2.889-.013.797.85.797 2.23 0 3.08-.013.014-.026.023-.04.037l2.188 2.332.13-.139a.175.175 0 0 1 .256 0l.628.67c1.014 1.08 2.382 1.404 3.968 1.782 2.079.494 4.665 1.109 7.571 3.709 3.024 2.696 4.063 5.028 5.073 7.282.762 1.7 1.481 3.306 2.928 4.853l1.737-1.852c-1.152-1.228-1.754-2.572-2.447-4.128-1.07-2.387-2.283-5.098-5.714-8.164v-.01Z" fill="#6D6D6E"/><path d="M39.485 33.61c.576-.615.727-1.77.151-2.384-1.122-1.196-1.715-2.52-2.4-4.059-1.078-2.415-2.304-5.148-5.778-8.252-3.413-3.047-6.631-3.615-8.87-4.151-1.222-.29-2.188-.522-2.643-1.007L17.71 16.14c1.061 1.131 2.464 1.469 4.084 1.852 2.054.49 4.61 1.094 7.468 3.652 2.98 2.665 4.011 4.965 5.008 7.195.736 1.649 1.498 3.348 2.98 4.927.576.614 1.659.453 2.235-.161v.004Z" fill="#739CED"/><path d="M38.15 32.806c-1.121-1.196-1.715-2.522-2.4-4.06-1.078-2.415-2.304-5.148-5.777-8.252-3.414-3.047-6.632-3.615-8.872-4.15-1.221-.292-2.187-.523-2.642-1.008l-.754.804c1.062 1.131 2.465 1.468 4.085 1.852 2.053.49 4.609 1.094 7.468 3.652 2.98 2.665 4.01 4.965 5.007 7.195.736 1.648 1.499 3.348 2.98 4.927.334.356.832.453 1.308.351.351-.074.174-.702-.402-1.316v.005Z" fill="url(#a)"/><path d="M34.005 39.451c-.576.614-1.659.776-2.235.162-1.122-1.196-2.365-1.83-3.807-2.559-2.266-1.15-4.83-2.456-7.741-6.16-2.859-3.639-3.392-7.07-3.894-9.457-.273-1.302-.49-2.332-.944-2.817l2.235-2.383c1.06 1.132 1.377 2.628 1.737 4.355.459 2.189 1.026 4.913 3.426 7.961 2.5 3.177 4.656 4.276 6.749 5.338 1.546.785 3.14 1.598 4.621 3.177.576.614.425 1.769-.151 2.383h.004Z" fill="url(#b)"/><path d="M16.618 13.374a1.322 1.322 0 0 1 0 1.787 1.133 1.133 0 0 1-1.676 0 1.322 1.322 0 0 1 0-1.787 1.133 1.133 0 0 1 1.676 0Z" fill="#898989"/><path d="M16.363 13.646a.92.92 0 0 1 0 1.247.788.788 0 0 1-1.17 0 .92.92 0 0 1 0-1.247.788.788 0 0 1 1.17 0Z" fill="#504F53"/><path d="M17.55 15.605s.09-.48.697-1.127c.55-.587 1.04-.725 1.04-.725l-.425-.453-1.867 1.99s.134-.129.255 0l.295.315h.004Z" fill="#39373A"/><path d="M32.61 38.712c-1.122-1.196-2.365-1.829-3.807-2.558-2.265-1.15-4.83-2.457-7.74-6.16-2.86-3.64-3.392-7.07-3.895-9.457-.273-1.303-.49-2.332-.944-2.817l1.39-1.483c1.062 1.132 1.378 2.628 1.737 4.355.46 2.189 1.027 4.913 3.427 7.961 2.499 3.177 4.656 4.276 6.748 5.338 1.547.785 3.14 1.598 4.622 3.177.334.356.425.887.33 1.395-.07.374-.919 1.265-1.872.25h.004Z" fill="#739CED"/><path d="M32.411 10.008 12.317 31.43c.762 2.58.32 4.691-2.322 6.132-2.66 1.45-4.968 1.09-5.822.877a.782.782 0 0 1-.506-.425l-.217-.457 2.985-1.625c1.667-.91 2.33-3.09 1.477-4.867l-.278-.578C6.915 28.992 5.2 28.4 3.797 29.163l-3.47 1.889-.243-.508a.868.868 0 0 1-.021-.697C.409 28.99 1.5 26.84 4.16 25.394c2.123-1.154 3.734-.84 5.068.443a.744.744 0 0 0 1.07-.018L29.301 5.56a.877.877 0 0 0 .208-.762c-.32-1.658.139-3.02 1.91-3.985 2.543-1.386 4.657-.582 4.657-.582l.281.586-2.252 1.229c-1.26.688-1.759 2.327-1.113 3.67l.021.051c.641 1.344 2.183 1.875 3.444 1.187l2.252-1.228.304.628s-.637 2.244-3.188 3.639c-1.382.752-2.478.679-3.4.018l-.014-.004Z" fill="#D8DADC"/><path d="M32.004 10.446 12.638 31.092a.863.863 0 0 0-.2.795c.58 2.378.04 4.327-2.447 5.68-2.66 1.45-4.968 1.09-5.822.877a.782.782 0 0 1-.507-.425l-.216-.457 3.47-1.889c1.667-.91 1.849-2.826.996-4.608l3.417-1.82L30.96 8.317c-.199-.332-.394-.697-.58-1.085l2.63-1.464c.64 1.344 1.818 2.074 3.079 1.386l2.616-1.423.303.628S38.372 8.604 35.82 10c-1.156.627-2.114.678-2.932.29a.75.75 0 0 0-.875.162l-.009-.005Z" fill="#B1B1B2"/><path d="M35.608 9.749c-1.239.674-2.196.743-3.006.323a1.132 1.132 0 0 0-1.36.24L12.438 30.358a.937.937 0 0 0-.208.896c.728 2.558.078 4.498-2.555 5.86-2.86 1.478-6.017.891-6.017.891l-.212-.443 2.984-1.625c1.668-.91 2.33-3.09 1.477-4.868l-.03-.064c-.853-1.778-2.898-2.485-4.566-1.575L.327 31.055l-.2-.42s1.382-3.343 4.22-4.728c2.321-1.132 3.911-.947 5.228.392a.804.804 0 0 0 1.174-.014L29.33 6.475c.295-.314.412-.771.312-1.205-.398-1.746.156-3.053 2.092-4.055C34.032.024 36.253.62 36.253.62l.096.203-2.253 1.228c-1.26.688-1.758 2.328-1.113 3.671l.022.051c.64 1.344 2.183 1.875 3.443 1.187l2.253-1.228.082.17s-.624 2.457-3.175 3.852v-.005Z" fill="#6D6D6E"/><path d="M11.346 27.036 29.194 8.03a.951.951 0 0 1 1.403.001l.049.052a1.11 1.11 0 0 1 0 1.496L12.796 28.585a.951.951 0 0 1-1.402 0l-.05-.053a1.11 1.11 0 0 1 .001-1.496Z" fill="#B1B1B2"/><defs><linearGradient id="a" x1="2.854" y1="3.036" x2="42.439" y2="5.016" gradientUnits="userSpaceOnUse"><stop stop-color="#040E1D"/><stop offset=".203" stop-color="#0E305F"/><stop offset=".396" stop-color="#133F7B"/><stop offset=".578" stop-color="#19519D"/><stop offset=".786" stop-color="#1161CD"/><stop offset="1" stop-color="#1161CD"/></linearGradient><linearGradient id="b" x1="1.871" y1=".706" x2="37.931" y2="2.005" gradientUnits="userSpaceOnUse"><stop stop-color="#040E1D"/><stop offset=".203" stop-color="#0E305F"/><stop offset=".396" stop-color="#133F7B"/><stop offset=".578" stop-color="#19519D"/><stop offset=".786" stop-color="#1161CD"/><stop offset="1" stop-color="#1161CD"/></linearGradient></defs></svg>
